X:338
T: Huaqi longchuan zou xinjiang
N: C1220
O: China, Jiangxi, Guixi
S: IV, 266]
R: Haozi, Longchuan haozi, Fengsuge. Duanwujie hualongchuan chang]
M: 2/4
L: 1/16
K: D
A8
B2A2B2f2 | e2e2d2B2
f2f2e2d2 | B4B2A2
B6d2 | e6f2 | e8
d4B4 | e8
d2d2BAB2 | A8
e2e2e2d2 | B2A2B4
d2d2BAB2 | A4
A2F2 | A4F2A2 | B4B2A2 | F4B2A2 | F8

